svg/design/ruler_fill.svg

<?xml version="1.0" encoding="UTF-8"?>
<svg width="24px" height="24px" viewBox="0 0 24 24" version="1.1" xmlns="http://www.w3.org/2000/svg" xmlns:xlink="http://www.w3.org/1999/xlink">
    <title>ruler_fill</title>
    <g id="页面-1" stroke="none" stroke-width="1" fill="none" fill-rule="evenodd">
        <g id="Design" transform="translate(-144.000000, -144.000000)">
            <g id="ruler_fill" transform="translate(144.000000, 144.000000)">
                 <path d="M24,0 L24,24 L0,24 L0,0 L24,0 Z M12.5934901,23.257841 L12.5819402,23.2595131 L12.5108777,23.2950439 L12.4918791,23.2987469 L12.4918791,23.2987469 L12.4767152,23.2950439 L12.4056548,23.2595131 C12.3958229,23.2563662 12.3870493,23.2590235 12.3821421,23.2649074 L12.3780323,23.275831 L12.360941,23.7031097 L12.3658947,23.7234994 L12.3769048,23.7357139 L12.4804777,23.8096931 L12.4953491,23.8136134 L12.4953491,23.8136134 L12.5071152,23.8096931 L12.6106902,23.7357139 L12.6232938,23.7196733 L12.6232938,23.7196733 L12.6266527,23.7031097 L12.609561,23.275831 C12.6075724,23.2657013 12.6010112,23.2592993 12.5934901,23.257841 L12.5934901,23.257841 Z M12.8583906,23.1452862 L12.8445485,23.1473072 L12.6598443,23.2396597 L12.6498822,23.2499052 L12.6498822,23.2499052 L12.6471943,23.2611114 L12.6650943,23.6906389 L12.6699349,23.7034178 L12.6699349,23.7034178 L12.678386,23.7104931 L12.8793402,23.8032389 C12.8914285,23.8068999 12.9022333,23.8029875 12.9078286,23.7952264 L12.9118235,23.7811639 L12.8776777,23.1665331 C12.8752882,23.1545897 12.8674102,23.1470016 12.8583906,23.1452862 L12.8583906,23.1452862 Z M12.1430473,23.1473072 C12.1332178,23.1423925 12.1221763,23.1452606 12.1156365,23.1525954 L12.1099173,23.1665331 L12.0757714,23.7811639 C12.0751323,23.7926639 12.0828099,23.8018602 12.0926481,23.8045676 L12.108256,23.8032389 L12.3092106,23.7104931 L12.3186497,23.7024347 L12.3186497,23.7024347 L12.3225043,23.6906389 L12.340401,23.2611114 L12.337245,23.2485176 L12.337245,23.2485176 L12.3277531,23.2396597 L12.1430473,23.1473072 Z" id="MingCute" fill-rule="nonzero"></path>
                <path d="M19,3 C20.0543909,3 20.9181678,3.81587733 20.9945144,4.85073759 L21,5 L21,10 C21,11.0543909 20.18415,11.9181678 19.1492661,11.9945144 L19,12 L12,12 L12,19 C12,20.0543909 11.18415,20.9181678 10.1492661,20.9945144 L10,21 L5,21 C3.94563773,21 3.08183483,20.18415 3.00548573,19.1492661 L3,19 L3,5 C3,3.94563773 3.81587733,3.08183483 4.85073759,3.00548573 L5,3 L19,3 Z M6,15 L5,15 L4.88337975,15.0067275 C4.38604429,15.0644908 4,15.48715 4,16 C4,16.51285 4.38604429,16.9355092 4.88337975,16.9932725 L5,17 L6,17 L6.11662025,16.9932725 C6.61395571,16.9355092 7,16.51285 7,16 C7,15.48715 6.61395571,15.0644908 6.11662025,15.0067275 L6,15 Z M6,11 L5,11 C4.44772,11 4,11.4477 4,12 C4,12.51285 4.38604429,12.9355092 4.88337975,12.9932725 L5,13 L6,13 C6.55228,13 7,12.5523 7,12 C7,11.48715 6.61395571,11.0644908 6.11662025,11.0067275 L6,11 Z M6,7 L5,7 C4.44772,7 4,7.44772 4,8 C4,8.51283143 4.38604429,8.93550653 4.88337975,8.9932722 L5,9 L6,9 C6.55228,9 7,8.55228 7,8 C7,7.48716857 6.61395571,7.06449347 6.11662025,7.0067278 L6,7 Z M8.00015,4 C7.48731857,4 7.06464347,4.38604429 7.0068778,4.88337975 L7.00015,5 L7.00015,6 C7.00015,6.55228 7.44787,7 8.00015,7 C8.51299071,7 8.93565786,6.61395571 8.99342234,6.11662025 L9.00015,6 L9.00015,5 C9.00015,4.44772 8.55244,4 8.00015,4 Z M12,4 C11.48715,4 11.0644908,4.38604429 11.0067275,4.88337975 L11,5 L11,6 L11.0067275,6.11662025 C11.0644908,6.61395571 11.48715,7 12,7 C12.51285,7 12.9355092,6.61395571 12.9932725,6.11662025 L13,6 L13,5 L12.9932725,4.88337975 C12.9355092,4.38604429 12.51285,4 12,4 Z M15.9998,4 C15.4870429,4 15.0643041,4.38604429 15.0065289,4.88337975 L14.9998,5 L14.9998,6 C14.9998,6.55228 15.4476,7 15.9998,7 C16.51265,7 16.9353092,6.61395571 16.9930725,6.11662025 L16.9998,6 L16.9998,5 C16.9998,4.44772 16.5521,4 15.9998,4 Z" id="形状" fill="#09244B"></path>
            </g>
        </g>
    </g>
</svg>

<svg xmlns="http://www.w3.org/2000/svg" width="24" height="24"><g fill="none" fill-rule="evenodd"><path d="M24 0v24H0V0h24ZM12.593 23.258l-.011.002-.071.035-.02.004-.014-.004-.071-.035c-.01-.004-.019-.001-.024.005l-.004.01-.017.428.005.02.01.013.104.074.015.004.012-.004.104-.074.012-.016.004-.017-.017-.427c-.002-.01-.009-.017-.017-.018Zm.265-.113-.013.002-.185.093-.01.01-.003.011.018.43.005.012.008.007.201.093c.012.004.023 0 .029-.008l.004-.014-.034-.614c-.003-.012-.01-.02-.02-.022Zm-.715.002a.023.023 0 0 0-.027.006l-.006.014-.034.614c0 .012.007.02.017.024l.015-.002.201-.093.01-.008.004-.011.017-.43-.003-.012-.01-.01-.184-.092Z"/><path fill="#09244B" d="M19 3a2 2 0 0 1 1.995 1.85L21 5v5a2 2 0 0 1-1.85 1.995L19 12h-7v7a2 2 0 0 1-1.85 1.995L10 21H5a2 2 0 0 1-1.995-1.85L3 19V5a2 2 0 0 1 1.85-1.995L5 3h14ZM6 15H5l-.117.007a1 1 0 0 0 0 1.986L5 17h1l.117-.007a1 1 0 0 0 0-1.986L6 15Zm0-4H5a1 1 0 0 0-.117 1.993L5 13h1a1 1 0 0 0 .117-1.993L6 11Zm0-4H5a1 1 0 0 0-.117 1.993L5 9h1a1 1 0 0 0 .117-1.993L6 7Zm2-3a1 1 0 0 0-.993.883L7 5v1a1 1 0 0 0 1.993.117L9 6V5a1 1 0 0 0-1-1Zm4 0a1 1 0 0 0-.993.883L11 5v1l.007.117a1 1 0 0 0 1.986 0L13 6V5l-.007-.117A1 1 0 0 0 12 4Zm4 0a1 1 0 0 0-.993.883L15 5v1a1 1 0 0 0 1.993.117L17 6V5a1 1 0 0 0-1-1Z"/></g></svg>
